X:1
T:Les Sept Ivresses
T:La Haine
T:4. La Haine
T:Augusta Mary Anne Holmès
T:Les Sept Ivresses
T:OpenScore (CC0)
T:OpenScore (CC0)
T:OpenScore (CC0)
T:OpenScore (CC0)
T:OpenScore (CC0)
C:Augusta Mary Anne Holmès
Z:Augusta Mary Anne Holmès
Z:OpenScore (CC0)
%%score ( 1 2 ) { 3 | ( 4 5 ) }
L:1/8
Q:1/4=92
M:4/4
K:F
V:1 treble nm="Chant\nVoice"
V:2 treble 
V:3 treble nm="Piano"
V:4 bass 
V:5 bass 
V:1
"^Andante con moto" z8 | z8 | z8 | z8 | z4 z2 z3/2!p! A/ | (d4 A3) A | A4- A2 z A | (d4 A3) A | %8
w: ||||Que|l'om- bre des|nuits _ te|gla- ce le|
 A6- A z |!f! (f3 c) c3 c | c4- c2 z2 |!mf! f8- | f c _A B c2 c z/!p! c/ | _d4 c2 f2 | e4 f2 c2 | %15
w: sang; _|Que l'a- zur du|jour _|brû-|* le ta pau- piè- re! Que|toute es- pé-|ran- ce et|
 _d4 c2 f2 | e6 =d2 | G2 d2 F2 d2 | (E2 d4) D G | (B4 ^c2) e2 | d4- d2 z2 | z8 |!pp! D3 D =E3 E | %23
w: tou- te lu-|miè- re|A ton souf- fle|meu re en se|flé- * tris-|sant. _||Qu'un a- mer dé-|
 (^F4 G3) G |!f!!<(! (A4 B3 B | c4!<)! d3)!f! d |!<(! e4 f3 f!<)! | ^f2- f!f! f g2- g G/ E/ | %28
w: sir _ sans|trê- ve dé-|vo- re, Vau-|tour af- fa-|\- mé, _ ton cœur _ et tes|
 A4- A2 z2 | z8 |!p! B3 B B3 c | _A3!<(! F _d3!<)! d/!>(! _e/ | _c4- c2!>)! z2 | z8 | %34
w: sens! _||Que ton pain noir-|ci te bri- se les|dents! _||
!f!!>(! (=e6 E2)!>)! | _E6 _e2 |!f!!>(! (=e6 E)!>)! z |!p!!<(! _E2 =E2 F2 ^F2 | %38
w: Que l'en-|nui t'ac-|\- ca- ble|Que l'en- nui t'ac-|
 G2 _A2 =A2!<)! B3/2 B/ |!f! (A8 | D4-) D2 z2 ||[M:2/4] z2 z!p! A || %42
w: cable et te des- ho-|\- no-|re! _|Qu'un|
[M:2/2][Q:1/4=116]"^Più allegro" d4 d2 d2 | _E4- E2 _e2 |!f! =e4 e3 e | F4- F2 F2 | %46
w: voi- le d'hor-|reur _ te|ca- che le|jour; _ Que|
 A2 d3/2!ff! f/ a4- | a2 (fd) A2 F3/2 G/ | (A8 ||[M:4/4]"^1º tempo" D8-)[Q:1/4=88] || %50
w: vou- lant pri- er|_ ta _ bou- che blas-|phê-|me!|
[M:2/4] D z z2 ||[M:4/4]!f!!<(! (_e4 =e2)!<)! z2 |!f!!<(! (e4 f2)!<)! z2 | %53
w: _|Meurs! _|meurs _|
 z2!f! f3/2 f/ ^f3/2 f/ (3(f g a) | (G4 B2-) B z | A4- A A d f |!f! a4- a z F G | %57
w: é- cra- sé sous  mon a- na-|\- thê- me, _|Toi _ qui m'as ra-|vi _ mon u-|
[Q:1/4=85] A6[Q:1/4=74] A2[Q:1/4=81][Q:1/4=77] |[Q:1/4=88] D8- | D2 z2 z4 | %60
w: \- nique a-|mour!|_|
 z8[Q:1/4=85][Q:1/4=82][Q:1/4=80][Q:1/4=78] | z8[Q:1/4=76][Q:1/4=74][Q:1/4=72][Q:1/4=70] | z8 |] %63
w: |||
V:2
 x8 | x8 | x8 | x8 | x8 | x8 | x8 | x8 | x8 | x8 | x8 | x8 | x8 | x8 | x8 | x8 | x8 | x8 | x8 | %19
 x8 | x8 | x8 | x8 | x8 | x8 | x8 | x8 | x8 | x8 | x8 | x8 | x8 | x8 | x8 | x8 | x8 | x8 | x8 | %38
 x8 | x8 | x8 ||[M:2/4] x4 ||[M:2/2] x8 | x8 | x8 | x8 | x8 | x8 | x8 ||[M:4/4] x8 ||[M:2/4] x4 || %51
[M:4/4] x8 | x8 | x8 | x8 | x8 | x8 | x8 | d8- | d z z2 x4 | x8 | x8 | x8 |] %63
V:3
 z8!p! | z [FAd]!<(! z [FAd] z [FAd] z [FAd]!<)! |!>(! z [FAd] z [FAd] z [EGd] z!>)! [EG^c] | %3
 z!<(! [DFd] z [FAd] z [FAd] z [FAd]!<)! |!>(! z [FAd] z [FAd] z [EGd] z!>)! [EG^c] | %5
 z!<(! [DFd] z [FAd] z [FAd] z [FAd]!<)! |!>(! z [FAd] z [FAd] z [EGd] z [EG^c]!>)! | %7
 z!<(! [DFd] z [FAd] z [FAd] z [FAd]!<)! |!>(! z [FAd] z [FAd] z [EGd] z!>)! [EG^c] | %9
!p! z!<(! [F_A=c] z [Acf] z [Acf] z [Acf]!<)! |!>(! z [_Acf] z [Acf] z [GBf] z [GBe]!>)! | %11
 z!<(! [F_Af] z [Acf] z [Acf] z [Acf]!<)! | z [_Acf] z [Acf] z [GBf] z [GBe] | %13
 z!>(! (!>![GBf]2 [GBe])!>)!!mp! z!>(! (!>![_Acg]2 [Acf])!>)! | %14
!mp! z!>(! (!>![B_d_a]2 [Bdg])!>)!!mp! z!>(! (!>![_Acg]2 [Acf])!>)! | %15
!mp! z!>(! (!>![GBf]2 [GBe])!>)!!mp! z!>(! (!>![_Acg]2 [Acf])!>)! | %16
!mp! z!>(! (!>![B_d_a]2 [Bdg])!>)!!mp! z!>(! (!>![=A^cg]2 [A=df])!>)! | %17
!<(! z [Gdg] z [Gdg] z [Ada] z [Ada]!<)! | z!>(! [Bdb] z [Bdb] z [Ada] z [Ada] | %19
 z [Bdg] z [Bdg] z [A^cg] z [Acg]!>)! |!p! z!<(! [Adf] z [FAd] z [FAd] z [FAd]!<)! | %21
!>(! z [FAd] z [FAd] z [EGd] z [EG^c]!>)! | %22
!p! z!>(! ([^FA_e]2 [FAd])!>)!!mp! z!>(! ([GBf]2 [GB=e])!>)! | %23
!mp! z!>(! ([Acg]2 [Ac^f])!>)!!mp! z!>(! ([Bda]2 [Bdg])!>)! | %24
!mp!"_cresc." z!>(! ([c_e=b]2 [cea])!>)!!mp! z!>(! ([dgc']2 [dgb])!>)! | %25
!mf! z!>(! ([_EGd]2 [EGc])!>)!!mf! z!>(! ([GB_e]2 [GBd])!>)! | %26
!f! z!>(! ([GBf]2 [GBe])!>)!!f! z!>(! ([Adg]2 [Adf])!>)! | %27
!f! z!>(!!8va(! ([ad'g']2 [ad'^f'])!>)!!ff! z!>(! ([bd'a']2 [bd'g'])!>)! | %28
 z!ff! [e^c'e'] z [ec'e'] z [ec'e'] z [ebc']!8va)! | z [^ceb] z [Bcg] z [GBe] z [EBc] | %30
!p! z!<(! [EB=c] z [EBc]!<)! z!>(! [EBc] z [EBc]!>)! | z [F_Ac] z [FAc] z [G_d_e] z [Gde] | %32
!<(! z [A_c_e] z [Ace]!<)! z [Ace] z [Ace] | z!>(! [_A_c_e] z [ce_a] z [B_da] z [Bdg]!>)! | %34
 z!<(! [=Bd^g] z [Bdg]!<)! z!>(! [Bdg] z [Bdg]!>)! | %35
 z!<(! [_B_d=g] z [Bdg]!<)! z!>(! [Bdg] z [Bdg]!>)! | %36
 z!<(! [=Bd^g] z [Bdg]!<)! z!>(! [Bdg] z [Bdg]!>)! | %37
 z!p!"_cresc." [G_Bg] z [^G=B^g] z [Aca] z [^A^c^a] | z [=Bd=b] z [c_ec'] z [^c=e^c'] z [dfd'] | %39
!mf! z!<(! [egd'] z [egd']!<)! z!>(! [egd'] z [eg^c']!>)! | %40
!mf!"_cresc." z [^fad'] z [dfd'] z [dfd'] z [dfd'] ||[M:2/4] z [d^fd'] z [dfd'] || %42
[M:2/2] !//-!d2 c2 !//-!d2 c2 |"_cresc." !//-!_e2 d2 !//-!e2 d2 | !//-!=e2 d2 !//-!e2 d2 | %45
 !//-!f2 e2 !//-!f2 e2 |!ff! [fa] z z2 z4 |!ff!!8va(! [ad'f'a']!8va)! z z2 z4 | %48
!f! [EGd]2 z2 [EG^c]2 z2 ||[M:4/4]!f!"^1º tempo" z!<(! [D^Fd] z [DFd] z [FAc] z [Ac_e]!<)! || %50
[M:2/4] z [c_e^f] z [efa] ||[M:4/4]!f!!<(! ([c_e]4 [^c=e]2) z2!<)! |!<(! ([^ce]4 [df]2) z2!<)! | %53
 z4!ff! [_e^f]2- [ef] z |!f! ((([G,DG]8 | %55
 [A,DF]/))) z/!f!!8va(! ([bb'][aa'][^g^g'] [aa'][ff'][ee'][dd'])!8va)! | %56
!mf! z ([ff'][ee'][dd'] [^c^c'][dd'][Aa][Ff]) | %57
"_rall." z ([G^cg][^Gc^g][Aca] [Bgb][=Bg=b][cgc'][^cg^c']) | %58
!f!"_a Tempo" [dfd'] [FAd] z!<(! [FAd] z [FAd] z [FAd]!<)! | %59
!>(! z [FAd] z [FAd] z [EGd] z!>)! [EG^c] |!p! z"_rall." [DFd] z [FAd] z [FAd] z [FAd] | %61
 z [FAd] z [FAd] z [EGd] z [EG^c] |!pp! z [DFd] z2 !fermata!z4 |] %63
V:4
 z4 z2 z A,, | ([D,,D,]>E,F,>G, A,>DF>E | D>A,F,>G, A,2 A,,) z/ A,,/ | ([D,,D,]>E,F,>G, A,>DF>E | %4
 D>A,F,>G, A,2 A,,) z/ (A,,/ | [D,,D,]>E,F,>G, A,>DF>E | D>A,F,>G, A,2 A,,) z | %7
 ([D,,D,]>E,F,>G, A,>DF>E | D>A,F,>G, A,2 A,,) z | ([F,,F,]>G,_A,>B, C>F_A>G | F>C_A,>B, C2 C,) z | %11
 ([F,,F,]>G,_A,>B, C>F_A>G | F>C_A,>B, C2 C,) z | [B,,B,]>_DG>D [_A,,_A,]>CF>C | %14
 ([G,,G,]>B,E>B,) ([_A,,_A,]>CF>C) | ([B,,B,]>_DG>D) ([_A,,_A,]>CF>C) | %16
 [G,,G,]>B,E>B, [=A,,=A,]>E [F,,F,]>D | ([B,,B,]>DG>D) ([A,,A,]>DF>D) | %18
 ([G,,G,]>DE>D) ([F,,F,]>DF>D) | ([G,,G,]>DE>D) ([A,,A,]>^CE>C) | ([D,,D,]>E,F,>G, A,>DF>E | %21
 D>A,F,>G, A,2 A,,) z | ([^F,,^F,]>A,D>A,) ([G,,G,]>B,=E>B,) | ([A,,A,]>C^F>C) ([B,,B,]>DG>D) | %24
 [C,C]>_EA>E [D,D]>GB>G |[K:treble] ([_E,_E]>Gc>G) ([D,D]>GB>G) | %26
[K:bass] ([^C,^C]>EA>E) ([D,D]>FA>F) | ([C,C]>DA>D) ([B,,B,]>DG>D) | %28
!<(! ([A,,A,]>^CE>G!<)! B>AG>B |!>(!"^dim." E>G^C>E B,>CG,>B,)!>)! | ([=C,,=C,]>G,B,>C _D>CB,>G,) | %31
 ([F,,F,]>_A,C>F) ([_E,,_E,]>B,_D>E) | ([_A,,_A,]>B,_C>_D[K:treble] _E>_A_c>B | %33
 _A>_E_C>_D E2 _E,) z |[K:bass] ([E,,E,]>=B,D>E F>ED>B,) | ([_E,,_E,]>B,_D>_E _F>ED>B,) | %36
 ([=E,,=E,]>=B,D>E F>ED>B,) | [_E,,_E,]>_B, [=E,,=E,]>=B, [F,,F,]>C [^F,,^F,]>^C | %38
 [G,,G,]>D [_A,,_A,]>_E [=A,,=A,]>=E [B,,B,]>F | ([A,,A,]>EG>A B>AG>E) | %40
 ([D,,D,]>^F,A,>C _E>C^F>E ||[M:2/4][K:treble] A>^Fc>A) || %42
[M:2/2]!ped! !//-!^F2 A2 !//-!F2 A2!ped-up! |!ped! !//-!G2 B2 !//-!G2 B2!ped-up! | %44
!ped! !//-!^G2 =B2 !//-!G2 B2!ped-up! |!ped! !//-!A2 d2 !//-!A2 d2!ped-up! | [Ad] z z2 z4 | %47
[K:bass] [A,,D,F,A,] z z2 z4 | [A,,,A,,]2 z2 [A,,,A,,]2 z2 || %49
[M:4/4] [D,,D,]>^F,A,>C !>!E>C!>!^F>E ||[M:2/4][K:treble] !>!A>^F!>!c>A || %51
[M:4/4] ([^FA]4 [GB]2) z2 |!f! ([GB]4 [^G=B]2) z2 | z4 [Ac]2- [Ac] z |[K:bass] [B,,,B,,]8 | %55
!ped! z2 [A,DF]4-!ped-up! [A,DF] z |!ped! z2 [A,DF]4-!ped-up! [A,DF] z | z2 [A,EG]4- [A,EG] z | %58
 ([D,,D,]>E,F,>G, A,>DF>E | D>A,F,>G, A,2 A,,) z/ A,,/ | ([D,,D,]>E,F,>G, A,>DF>E | %61
 D>A,F,>G, A,2 A,,) z/ A,,/ | [D,,D,]2 z2 !fermata!z4 |] %63
V:5
 x8 | x8 | x8 | x8 | x8 | x8 | x8 | x8 | x8 | x8 | x8 | x8 | x8 | x8 | x8 | x8 | x8 | x8 | x8 | %19
 x8 | x8 | x8 | x8 | x8 | x8 |[K:treble] x8 |[K:bass] x8 | x8 | x8 | x8 | x8 | x8 | %32
 x4[K:treble] x4 | x8 |[K:bass] x8 | x8 | x8 | x8 | x8 | x8 | x8 ||[M:2/4][K:treble] x4 || %42
[M:2/2] x8 | x8 | x8 | x8 | x8 |[K:bass] x8 | x8 ||[M:4/4] x8 ||[M:2/4][K:treble] x4 ||[M:4/4] x8 | %52
 x8 | x8 |[K:bass] x8 | [A,,,A,,]4- [A,,,A,,]2 z2 | [A,,,A,,]4- [A,,,A,,]2 z2 | %57
 [A,,,A,,]4- [A,,,A,,]2 z2 | x8 | x8 | x8 | x8 | x8 |] %63

